!!!OTL: Général Bertrand (136a), S. 307f
!!!id: T0305
**kern
*clefG2
*k[]
*C:
{8c
8e
8f
=1
4.g
8g
8g
8g
8a
8g
=2
4g
4f}
8r
=3
{8f
8g
8f
=4
4.e
8e
8e
8d
8g
8f
=5
2d}
8r
=6
{8d
8d
8g
=7
4.g
8g
8g
8g
8a
8b
=8
4b
4a}
8r
=9
{8a
8a
8b
=10
4.d
8g
8g
8g
8f#
8a
=11
2g}
8r
=12
{8g
8g
8g
=13
4.dd
8dd
8cc
8b
8a
8g
=14
8g
8cc
4cc}
8r
=15
{8g
8a
8b
=16
4.cc
8e
8a
8g
8f
8e
=17
2d}
8r
=18
{8g
8g
8f
=19
4.e
8e
8f
8e
8g
8d
=20
8a
8g
4g}
8r
=21
{8cc
8b
8a
=22
4.g
8g
8a
8g
8f
8d
=23
2e}
8r
=24
{8g
8g
8f
=25
4.e
8e
8f
8e
8f
8d
=26
8a
8g
4g}
8r
=27
{8cc
8b
8a
=28
4.g
8g
8a
8g
8f
8d
=29
2c}
8r
==
*-
!!!minrhy: 8
!!!meters: 4/4 ]  ZZ[10
!!!cut: Général Bertrand (136a), S. 307f
!!!reg: Luxemburg
!!!trd: Singendes Volk, Esch-Alzette 1937, posth.
!!!rhy1: XXX  X_.XXXXX  X_X_0
!!!rhy2: XXX  X_.XXXXX  X__0
!!!key: T0305  08  C 4/4 ]  ZZ[10
!!!mod: ACHTTONSKALA DUR ?]  AMBITUS[9
!!!kad: 4265+125351
!!!akz: 555_332_557_255_+2+15_+162_346_563_346_561_
!!!fot: 'a__b__aw_c__d__e__f__g__fv_gw_
!!!for: 'a__aw_a__aw_aw_aw_aw_aw_aw_aw_
!!!fok: '^a_\__/__Vd_~a_^d_V__\__V__\__
!! PHRAS[AUFTAKTIG]
!!!fkt: historische, Kriegs- und Soldatenlieder
!!!bem: Fels, hhh Johann Olinger, 1896
!! THILL, Mathias:
!! PR[23] 2K[5] 2G[15] 3K[0] 3G[2] 4A[1] 4Ü[0] 5A[1] 6K[0] 6G[3]
!! 7K[0] 7G[0] 8A[3] MEHR[0] SI[29] ABS[113] SR[20] SP[9]
!! ST[21] 2k[8] 2g[33] 3k[3] 3g[1] 4d[3] 4ü[0] 5d[1] 6k[0] 6g[0]
!! 7k[0] 7g[0] 8d[0] mehr[0] si[48] dm[-19] sr[41] sp[7]
!! 1F[4] 2F[63] 3F[19] 4F[3] LF[0] 2P[4] 3P[6] 4P[0] TRI[0] DF[6] AB[119]
!! TF[0] U3K[0] U3[0] U4[0] U4Ü[0] U5[13] U6K[0] U6[6] U7K[0] U7[6]
!! N1[18] N2K[0] N2[22] N3K[0] N3[18] N4[3] N4Ü[3] N5[9] N6K[0] N6[2]
!!!n7k: 0] N7[0] O1[0] O2K[0] O2[0] O3K[0] O3[0] HÖ[0
